img/services/painting.svg

<svg width="123" height="122" viewBox="0 0 123 122" fill="none" xmlns="http://www.w3.org/2000/svg">
<path d="M120.824 73.567C119.325 71.0166 116.865 69.6054 114.482 68.1165C111.66 66.3531 108.541 65.1168 105.738 63.3097C103.392 61.7989 101.412 59.9723 100.227 57.3807C99.8672 56.5986 99.8988 56.0715 100.569 55.4205C103.309 52.7682 105.986 50.0478 108.677 47.3444C110.834 45.1754 110.839 42.9554 108.677 40.7863C104.635 36.7373 100.576 32.7053 96.5493 28.6418C95.5462 27.6289 94.4337 26.9537 92.9813 27.0703C92.3303 27.1237 92.187 26.6452 91.932 26.2784C86.4183 18.4152 80.9128 10.5463 75.4153 2.6718C74.5822 1.47192 73.6568 0.485783 72.2578 0H70.3486C69.773 0.439633 69.0613 0.650948 68.5294 1.18531C60.8378 8.89306 53.1462 16.5976 45.4547 24.2989C44.1212 25.6396 43.9075 27.4224 44.7867 29.1275C45.496 30.5023 46.2757 31.8382 47.0116 33.1984C47.1622 33.4729 47.4318 33.7182 47.3808 34.2866C45.6514 33.315 44.0823 32.4284 42.4841 31.5807C40.7353 30.6553 39.0035 30.8181 37.6409 32.1272C35.5795 34.1092 33.5603 36.1333 31.5832 38.1995C31.4014 38.4204 31.1755 38.6008 30.9199 38.7292C30.6643 38.8576 30.3848 38.9312 30.0991 38.9452C23.4001 39.3994 16.7206 40.0261 10.199 41.7336C7.20416 42.5157 4.23359 43.3974 1.78768 45.445C0.709239 46.351 0 47.4537 0 48.9183C0 51.5416 0 54.1648 0 56.788C0 58.0025 0.39104 59.0979 1.28974 59.8849C1.9504 60.4605 2.04513 61.0848 2.04513 61.8717C2.03055 78.007 2.09613 94.1423 1.97954 110.278C1.95525 113.384 3.23773 115.284 5.79052 116.663C8.68579 118.23 11.8215 119.063 15.0058 119.724C22.618 121.302 30.3396 121.863 38.0927 121.978C47.6019 122.119 57.0722 121.621 66.4186 119.707C69.9989 118.978 73.5281 118.053 76.6322 115.995C78.4515 114.781 79.3575 113.185 79.3453 110.909C79.2846 99.8624 79.3186 88.806 79.3162 77.7641C79.3162 77.1642 79.3308 76.6371 79.8335 76.1489C81.9734 74.0722 84.0744 71.959 86.1487 69.8337C86.5859 69.3868 86.943 69.3479 87.5041 69.5908C89.4615 70.3939 91.1729 71.6983 92.4663 73.3727C93.8387 75.0729 94.8952 76.9917 95.8911 78.9349C97.3484 81.7961 98.8228 84.6452 100.766 87.2272C104.798 92.5708 111.558 93.1294 116.411 88.4975C118.854 86.1657 121.225 83.8048 122.106 80.3849V76.8023C121.596 75.7627 121.434 74.592 120.824 73.567ZM39.9411 35.5204C40.4123 35.0347 40.7232 35.2581 41.1555 35.4986C44.6839 37.4709 48.2188 39.4342 51.7602 41.3887C53.2345 42.1951 54.7234 41.5636 55.0003 40.0674C55.1266 39.3873 54.8133 38.8335 54.5145 38.2773C52.6078 34.8452 50.7206 31.4034 48.7799 27.9932C48.418 27.3593 48.452 27.0047 48.979 26.4922C51.3691 24.1628 53.713 21.7849 56.0739 19.424C57.1912 18.3067 57.1863 18.3116 58.1628 19.4847C61.9227 24.0041 65.6843 28.5236 69.4475 33.043C69.6515 33.2858 69.8507 33.5287 70.0669 33.7716C70.9656 34.7432 72.1096 34.8962 73.0156 34.1432C73.9216 33.3903 74.0236 32.2001 73.1808 31.1751C71.07 28.5908 68.918 26.0404 66.7806 23.4755C64.7208 21.0053 62.6733 18.5205 60.5844 16.0721C60.1642 15.5863 60.1569 15.3143 60.633 14.8431C64.0335 11.4944 67.4056 8.12067 70.7494 4.72181C71.3809 4.08057 71.6117 4.31618 72.01 4.88698C77.5528 12.8295 83.1077 20.764 88.6748 28.6903C89.0999 29.2927 89.0464 29.6182 88.5266 30.1477C79.2061 39.431 69.9009 48.7313 60.6111 58.0486C60.2371 58.4227 59.9893 58.7336 59.3651 58.2915C51.1578 52.5058 42.9262 46.7566 34.5586 40.9005C36.4021 39.0618 38.202 37.313 39.9459 35.5204H39.9411ZM47.2934 54.7842C36.4993 55.1315 26.1375 54.7696 15.8754 52.8629C24.0577 51.4558 32.348 50.7722 40.6503 50.8202C41.3192 50.8019 41.9748 51.0099 42.5108 51.4104C43.9973 52.4961 45.5203 53.5381 47.2982 54.7842H47.2934ZM4.60278 48.2722C5.36225 47.6991 6.20958 47.2529 7.11184 46.9509C11.5543 45.275 16.2033 44.522 20.8789 43.8905C23.9467 43.4776 27.0314 43.259 30.1088 43.0185C30.3733 42.975 30.6445 43.0019 30.8952 43.0966C31.1459 43.1912 31.3673 43.3503 31.537 43.5577C32.6859 44.8159 34.2914 45.5203 35.7828 46.81C33.3951 46.9412 31.2625 47.0529 29.13 47.1768C21.9185 47.6334 14.7629 48.4374 7.81137 50.5506C7.00254 50.7935 4.68292 49.7296 4.25786 49.0058C3.99797 48.5589 4.40118 48.4326 4.60278 48.2722ZM4.117 53.8733C12.7664 57.3151 21.7582 58.1531 30.8035 58.6971C37.7875 59.087 44.7884 59.0651 51.7699 58.6316C52.3978 58.5658 53.0275 58.7393 53.5332 59.1173C54.8473 60.0889 56.2051 61.0095 57.8154 62.1365C53.5988 62.581 49.7369 62.8652 45.8627 62.9502C36.713 63.1761 27.5876 62.887 18.5229 61.522C14.6002 60.9317 10.6702 60.2905 7.00984 58.6874C3.34947 57.0843 4.09028 57.4511 4.117 53.8782V53.8733ZM75.2429 111.47C75.2429 112.296 74.6187 112.634 74.0284 112.959C71.4732 114.39 68.6581 115.084 65.826 115.675C56.1273 117.698 46.3024 118.104 36.4361 117.875C28.7219 117.698 21.0587 117.049 13.5363 115.203C11.4862 114.743 9.49537 114.051 7.60248 113.139C6.54105 112.602 6.0747 111.888 6.08684 110.618C6.15 102.908 6.11842 95.1989 6.11842 87.4895C6.11842 79.7024 6.13301 71.9129 6.099 64.1258C6.099 63.0983 6.1573 62.7559 7.34747 63.1542C12.6012 64.9346 18.0638 65.7118 23.5532 66.2729C32.7703 67.1803 42.0457 67.3427 51.2889 66.7587C53.6272 66.6195 55.9622 66.4235 58.2939 66.1709C58.5788 66.1182 58.8725 66.1399 59.1465 66.234C59.4205 66.328 59.6657 66.4912 59.8582 66.7077C63.6351 70.5187 67.4461 74.2956 71.2206 78.1042C72.1922 79.0757 73.2245 79.8044 74.6527 79.7073C75.1797 79.6708 75.2405 79.9283 75.2405 80.3388C75.2372 90.7216 75.2372 101.099 75.2405 111.47H75.2429ZM75.1627 75.119C74.677 75.6048 74.4341 75.6048 73.9702 75.119C70.0839 71.1939 66.1806 67.2898 62.2603 63.4068C61.743 62.8943 61.7211 62.6393 62.2603 62.1098C72.3808 52.0152 82.4867 41.9036 92.5781 31.7751C93.1537 31.197 93.433 31.2674 93.9601 31.7993C97.814 35.6969 101.688 39.5751 105.582 43.4338C105.808 43.613 106.053 43.7677 106.311 43.8953C105.969 44.2621 105.825 44.4394 105.648 44.6046C95.4822 54.7753 85.3196 64.9467 75.1603 75.119H75.1627ZM116.177 82.9644C115.247 83.936 114.285 84.893 113.306 85.8233C112.104 86.9673 110.654 87.5235 108.791 87.5478C107.928 87.5256 107.081 87.3054 106.316 86.904C105.551 86.5027 104.889 85.931 104.38 85.233C102.87 83.2419 101.555 81.11 100.453 78.8669C99.2381 76.4161 97.9775 73.9872 96.3745 71.7574C94.8248 69.6054 92.9958 67.7449 90.6106 66.5231C90.001 66.2098 89.9888 66.0106 90.46 65.5515C92.3619 63.6861 94.237 61.7964 96.1097 59.9043C96.4619 59.5473 96.6635 59.4331 96.955 59.9942C98.8981 63.7129 102.129 66.0252 105.675 68.0096C108.922 69.8264 112.362 71.2984 115.352 73.5742C118.604 76.0469 119.005 79.9914 116.175 82.9644H116.177Z" fill="#5C5C5C"/>
<path d="M44.522 76.71C43.8249 74.9952 42.5279 74.0042 40.6867 74.0042C38.8456 74.0042 37.5291 74.9757 36.8417 76.693C34.5294 82.379 32.1345 88.0336 29.9412 93.7634C26.9609 101.55 32.5887 109.831 40.7304 109.835C41.4818 109.788 42.2301 109.701 42.9723 109.576C50.0526 108.045 54.0385 100.589 51.3715 93.6711C49.1782 87.9898 46.8173 82.3669 44.522 76.71ZM44.4151 104.72C43.1416 105.461 41.6763 105.807 40.2058 105.713C38.7352 105.619 37.3258 105.09 36.1568 104.193C33.7279 102.269 32.5134 98.7354 33.6137 95.7308C35.2119 91.3587 37.0409 87.0523 38.7776 82.7215C39.38 81.2205 39.9921 79.7242 40.6794 78.0532C42.4428 82.4398 44.1552 86.6491 45.8287 90.873C46.5987 92.8161 47.6698 94.6548 48.0148 96.7558C48.503 99.9693 47.0529 103.168 44.4151 104.727V104.72Z" fill="#5C5C5C"/>
<path d="M12.0328 79.3648C10.9932 79.4499 10.369 80.0498 10.2257 81.0918C10.1862 81.4921 10.174 81.8946 10.1893 82.2965C10.1893 86.3901 10.1893 90.4844 10.1893 94.5796C10.1893 98.6747 10.1893 102.769 10.1893 106.863C10.175 107.26 10.1864 107.657 10.2233 108.053C10.3666 109.095 10.9859 109.7 12.0279 109.787C13.0699 109.874 13.8083 109.411 14.1047 108.398C14.2207 107.937 14.2714 107.462 14.2553 106.986C14.2553 98.7184 14.2553 90.4504 14.2553 82.1824C14.2709 81.7074 14.2211 81.2326 14.1071 80.7712C13.8156 79.7438 13.0675 79.2798 12.0328 79.3648Z" fill="#5C5C5C"/>
<path d="M12.2272 69.1635C10.8087 69.1513 10.1869 70.0597 10.2039 72.1462C10.2039 72.5421 10.1772 72.9404 10.2039 73.3363C10.2962 74.4391 10.9155 75.0779 12.0061 75.2066C13.0967 75.3353 13.9493 74.6965 14.1703 73.6084C14.2455 73.1387 14.2731 72.6627 14.2529 72.1875C14.265 70.1326 13.6189 69.1805 12.2272 69.1635Z" fill="#5C5C5C"/>
<path d="M92.0291 38.1364C91.843 38.2848 91.6684 38.4472 91.5069 38.6222C86.4483 43.6808 81.3889 48.7394 76.3286 53.7981C75.9676 54.11 75.6855 54.5028 75.5052 54.9445C75.4052 55.2464 75.3774 55.5675 75.4241 55.8821C75.4708 56.1966 75.5906 56.4959 75.7739 56.7557C75.9572 57.0156 76.1989 57.2288 76.4796 57.3783C76.7603 57.5277 77.0721 57.6093 77.3901 57.6163C78.1673 57.6042 78.7138 57.1815 79.2385 56.6569C84.2582 51.6193 89.2877 46.5866 94.3269 41.5588C94.5303 41.3696 94.7187 41.165 94.8904 40.9467C95.1786 40.5618 95.3209 40.0872 95.292 39.6073C95.2631 39.1274 95.0649 38.6733 94.7325 38.3259C94.3896 37.958 93.9199 37.7339 93.4182 37.6987C92.9164 37.6636 92.4201 37.82 92.0291 38.1364Z" fill="#5C5C5C"/>
<path d="M71.6408 59.3287C70.3656 59.3457 68.2136 61.5148 68.2112 62.7972C68.2068 63.1555 68.3016 63.508 68.4851 63.8158C68.6686 64.1236 68.9335 64.3746 69.2508 64.5412C69.5674 64.7535 69.9445 64.8572 70.3252 64.8366C70.7059 64.816 71.0696 64.6723 71.3615 64.427C72.0955 63.8294 72.7662 63.1579 73.3629 62.4232C73.8657 61.7917 73.8366 61.012 73.4164 60.3027C73.2413 59.9904 72.9821 59.7335 72.6682 59.5613C72.3543 59.3891 71.9983 59.3085 71.6408 59.3287Z" fill="#5C5C5C"/>
</svg>

<svg xmlns="http://www.w3.org/2000/svg" width="123" height="122" fill="none"><path fill="#5C5C5C" d="M120.824 73.567c-1.499-2.55-3.959-3.962-6.342-5.45-2.822-1.764-5.941-3-8.744-4.807-2.346-1.511-4.326-3.338-5.511-5.93-.36-.781-.328-1.309.342-1.96 2.74-2.652 5.417-5.372 8.108-8.076 2.157-2.169 2.162-4.389 0-6.558-4.042-4.049-8.101-8.08-12.128-12.144-1.003-1.013-2.115-1.688-3.568-1.572-.65.054-.794-.425-1.049-.792-5.514-7.863-11.02-15.732-16.517-23.606-.833-1.2-1.758-2.186-3.157-2.672h-1.91c-.575.44-1.287.65-1.819 1.185A79255.9 79255.9 0 0 1 45.455 24.3c-1.334 1.34-1.547 3.123-.668 4.829.709 1.374 1.489 2.71 2.225 4.07.15.275.42.52.369 1.089-1.73-.972-3.299-1.859-4.897-2.706-1.749-.926-3.48-.763-4.843.546a205.842 205.842 0 0 0-6.058 6.072 2.052 2.052 0 0 1-1.484.746c-6.699.454-13.378 1.081-19.9 2.789-2.995.782-5.965 1.663-8.411 3.711C.709 46.351 0 47.454 0 48.918v7.87c0 1.215.391 2.31 1.29 3.097.66.576.755 1.2.755 1.987-.014 16.135.051 32.27-.065 48.406-.025 3.106 1.258 5.006 3.81 6.385 2.896 1.567 6.032 2.4 9.216 3.061 7.612 1.578 15.334 2.139 23.087 2.254 9.509.141 18.98-.357 28.326-2.271 3.58-.729 7.11-1.654 10.213-3.712 1.82-1.214 2.725-2.81 2.713-5.086-.06-11.047-.026-22.103-.029-33.145 0-.6.015-1.127.517-1.615a329.27 329.27 0 0 0 6.316-6.315c.437-.447.794-.486 1.355-.243a12.05 12.05 0 0 1 4.962 3.782c1.373 1.7 2.43 3.619 3.425 5.562 1.457 2.861 2.932 5.71 4.875 8.292 4.032 5.344 10.792 5.902 15.645 1.27 2.443-2.331 4.814-4.692 5.695-8.112v-3.583c-.51-1.04-.672-2.21-1.282-3.235ZM39.941 35.52c.471-.485.782-.262 1.215-.021 3.528 1.972 7.063 3.935 10.604 5.89 1.474.806 2.963.175 3.24-1.322.127-.68-.187-1.233-.486-1.79-1.906-3.432-3.793-6.874-5.734-10.284-.362-.634-.328-.988.199-1.5 2.39-2.33 4.734-4.708 7.095-7.069 1.117-1.117 1.112-1.112 2.089.06 3.76 4.52 7.521 9.04 11.285 13.559.204.243.403.486.619.729.899.971 2.043 1.124 2.949.371.906-.753 1.008-1.943.165-2.968-2.111-2.584-4.263-5.135-6.4-7.7-2.06-2.47-4.108-4.955-6.197-7.403-.42-.486-.427-.758.049-1.229A903.38 903.38 0 0 0 70.749 4.722c.632-.641.863-.406 1.261.165A9635.368 9635.368 0 0 0 88.675 28.69c.425.603.371.928-.148 1.458-9.32 9.283-18.626 18.583-27.916 27.9-.374.375-.622.686-1.246.243-8.207-5.785-16.439-11.534-24.806-17.39 1.843-1.84 3.643-3.588 5.387-5.38h-.005Zm7.352 19.264c-10.794.348-21.155-.014-31.418-1.921A141.359 141.359 0 0 1 40.65 50.82a2.973 2.973 0 0 1 1.86.59c1.487 1.086 3.01 2.128 4.788 3.374h-.005Zm-42.69-6.512a8.805 8.805 0 0 1 2.509-1.321c4.442-1.676 9.091-2.429 13.767-3.06 3.068-.413 6.152-.632 9.23-.872a1.525 1.525 0 0 1 1.428.539c1.149 1.258 2.754 1.962 4.246 3.252-2.388.131-4.52.243-6.653.367-7.211.456-14.367 1.26-21.319 3.374-.808.242-3.128-.821-3.553-1.545-.26-.447.143-.573.345-.734Zm-.486 5.601c8.65 3.442 17.641 4.28 26.686 4.824 6.985.39 13.985.368 20.967-.065a2.509 2.509 0 0 1 1.763.485c1.314.972 2.672 1.893 4.282 3.02-4.216.444-8.078.728-11.952.813-9.15.226-18.275-.063-27.34-1.428-3.923-.59-7.853-1.231-11.513-2.835-3.66-1.603-2.92-1.236-2.893-4.809v-.005Zm71.126 57.597c0 .826-.624 1.164-1.215 1.489-2.555 1.431-5.37 2.125-8.202 2.716-9.699 2.023-19.524 2.429-29.39 2.2-7.714-.177-15.377-.826-22.9-2.672a27.582 27.582 0 0 1-5.934-2.064c-1.061-.537-1.527-1.251-1.515-2.521.063-7.71.031-15.42.031-23.128 0-7.788.015-15.577-.019-23.364 0-1.028.058-1.37 1.248-.972 5.254 1.78 10.717 2.558 16.206 3.119a172.24 172.24 0 0 0 27.736.486c2.338-.14 4.673-.335 7.005-.588a1.683 1.683 0 0 1 1.564.537c3.777 3.81 7.588 7.588 11.363 11.396.971.972 2.004 1.7 3.432 1.603.527-.036.587.221.587.632-.003 10.383-.003 20.76 0 31.131h.003Zm-.08-36.351c-.486.486-.729.486-1.193 0-3.886-3.925-7.79-7.83-11.71-11.712-.517-.513-.539-.768 0-1.297a13763.54 13763.54 0 0 0 30.318-30.335c.576-.578.855-.508 1.382.024 3.854 3.898 7.728 7.776 11.622 11.635.226.179.471.334.729.461-.342.367-.486.544-.663.71C95.482 54.775 85.32 64.947 75.16 75.119h.003Zm41.014 7.845a85.726 85.726 0 0 1-2.871 2.86c-1.202 1.143-2.652 1.7-4.515 1.724a5.64 5.64 0 0 1-4.411-2.315 38.98 38.98 0 0 1-3.927-6.366c-1.215-2.45-2.475-4.88-4.079-7.11-1.55-2.152-3.378-4.012-5.763-5.234-.61-.313-.622-.512-.151-.971a538.122 538.122 0 0 0 5.65-5.648c.352-.357.553-.47.845.09 1.943 3.719 5.174 6.031 8.72 8.016 3.247 1.816 6.687 3.288 9.677 5.564 3.252 2.473 3.653 6.417.823 9.39h.002Z"/><path fill="#5C5C5C" d="M44.522 76.71c-.697-1.715-1.994-2.706-3.835-2.706s-3.158.972-3.845 2.689c-2.313 5.686-4.707 11.34-6.9 17.07-2.981 7.787 2.647 16.068 10.788 16.072a21.63 21.63 0 0 0 2.242-.259c7.08-1.531 11.066-8.987 8.4-15.905-2.194-5.681-4.555-11.304-6.85-16.961Zm-.107 28.01a7.428 7.428 0 0 1-8.258-.527c-2.43-1.924-3.644-5.458-2.543-8.462 1.598-4.372 3.427-8.679 5.164-13.01a584.147 584.147 0 0 1 1.901-4.668c1.764 4.387 3.476 8.596 5.15 12.82.77 1.943 1.84 3.782 2.186 5.883.488 3.213-.962 6.412-3.6 7.971v-.007ZM12.033 79.365c-1.04.085-1.664.685-1.807 1.727-.04.4-.052.803-.037 1.204v24.567c-.014.397-.003.794.034 1.19.144 1.042.763 1.647 1.805 1.734 1.042.087 1.78-.376 2.077-1.389a5.08 5.08 0 0 0 .15-1.412V82.182a5.175 5.175 0 0 0-.148-1.41c-.291-1.028-1.04-1.492-2.074-1.407ZM12.227 69.163c-1.418-.012-2.04.897-2.023 2.983 0 .396-.027.794 0 1.19.092 1.103.711 1.742 1.802 1.87 1.09.13 1.943-.51 2.164-1.598.075-.47.103-.945.083-1.42.012-2.055-.634-3.008-2.026-3.025ZM92.03 38.136c-.187.149-.362.311-.523.486L76.329 53.798a3.026 3.026 0 0 0-.824 1.146 2.033 2.033 0 0 0 1.885 2.672c.777-.012 1.324-.434 1.849-.96 5.02-5.037 10.049-10.07 15.088-15.097a5.37 5.37 0 0 0 .563-.612 2.031 2.031 0 0 0-.157-2.621 1.987 1.987 0 0 0-2.704-.19ZM71.64 59.329c-1.274.017-3.426 2.186-3.429 3.468a1.943 1.943 0 0 0 1.04 1.744 1.759 1.759 0 0 0 2.11-.114 13.816 13.816 0 0 0 2.002-2.004c.503-.631.474-1.411.053-2.12a1.912 1.912 0 0 0-1.775-.974Z"/></svg>
